icon_installer/data/icons/scalable/actions/show-flash-memory-symbolic.svg

<?xml version="1.0" encoding="UTF-8"?>
<svg height="16px" viewBox="0 0 16 16" width="16px" xmlns="http://www.w3.org/2000/svg">
    <g fill="#222222">
        <path d="m 4.5625 2 c -0.847656 0 -1.5625 0.714844 -1.5625 1.5625 v 8.875 c 0 0.847656 0.714844 1.5625 1.5625 1.5625 h 7.875 c 0.847656 0 1.5625 -0.714844 1.5625 -1.5625 v -7.90625 l -2.4375 -2.53125 z m 0.4375 2 h 6.125 l 0.875 0.9375 v 7.0625 h -7 z m 0 0"/>
        <path d="m 6.9375 5 c -0.515625 0 -0.9375 0.421875 -0.9375 0.9375 v 2.03125 c 0 0.515625 0.421875 0.9375 0.9375 0.9375 h 0.0625 v -2.90625 h 1 v 2.90625 h 2.0625 c 0.519531 0 0.9375 -0.421875 0.9375 -0.9375 v -2.03125 c 0 -0.515625 -0.417969 -0.9375 -0.9375 -0.9375 h -0.0625 v 3.03125 h -1 v -3.03125 z m 0 0"/>
    </g>
</svg>

<svg xmlns="http://www.w3.org/2000/svg" width="16" height="16"><g fill="#222"><path d="M4.563 2C3.715 2 3 2.715 3 3.563v8.874C3 13.286 3.715 14 4.563 14h7.875c.847 0 1.562-.715 1.562-1.563V4.532L11.562 2zM5 4h6.125l.875.938V12H5zm0 0"/><path d="M6.938 5A.94.94 0 0 0 6 5.938v2.03a.94.94 0 0 0 .938.938H7V6h1v2.906h2.063A.938.938 0 0 0 11 7.969V5.937A.938.938 0 0 0 10.062 5H10v3.031H9V5zm0 0"/></g></svg>
